!!!!SEGMENT: pl-kk--kk-i-287--002_anonim--iste-est-qui-ante-deum.krn
!!!cenid: 17xx:2103
!!!COM: Anonim
!!!COM-rismID: pe30004985
!!!CDT:
!!!CNT:
!!!OTL: Iste est qui ante Deum
!!!PDT:
!!!AGN: Sacred
!!!YEC: Copyright 2022 Narodowy Instytut Fryderyka Chopina (https://polishscores.org)
!!!YEM: License CC-BY-4.0 (https://creativecommons.org/licenses/by/4.0)
!!!SMS-siglum: PL-Kk
!!!SMS-shelfmark: Kk.I.287
!!!SMS-shelfwork: 002 W
!!!SMS-variant:
!!!SMS-altvar:
!!!NIFC-rismSourceID: 1001147593
!!!NIFC-rismChildID: 1001147602
!!!NIFC-islandoraID: pl-kk:4995
!!!URL-pdf-islandora: https://repozytorium.nifc.pl/islandora/object/pl-kk%3A4995/datastream/PDF/view
!!!URL-scan: https://polish.musicsources.pl/pl/lokalizacje/galeria/rekopisy/5905 @EN{Scan on Polish Music Sources Website} @PL{Skany w portalu Dziedzictwo Muzyki Polskiej w otwartym dostępie}
!!!IIIF:
!!!ONB-nifc: UWAGA: utwory w zbiorze: 1. Sint lumbi vestri, 2. Iste est qui ante Deum. Drugi utwór z kolekcji spisany na oddzielnych kartach, zapisany pierwotnie (wersja niepełna) tuż pod utworem pierwszym i zakreślony atramentem.
!!!AIN: 1 alto 2 empty 1 tenor 1 vox
!!!key:
**kern	**text	**kern	**text	**kern	**text	**dynam	**kern	**text	**dynam	**kern	**text
*part5	*	*part4	*	*part3	*	*	*part2	*	*	*part1	*
*staff5	*	*staff4	*	*staff3	*	*	*staff2	*	*	*staff1	*
*Iempty	*	*Iempty	*	*Itenor	*	*	*Ialto	*	*	*Ivox	*
*I"Baſso Ripieno.	*	*I"Baſso.	*	*I"Tenore	*	*	*I"Alto.	*	*	*I"Canto	*
*I'B rip	*	*I'B	*	*I'T	*	*	*I'A	*	*	*I'S	*
*clefF4	*	*clefF4	*	*clefC4	*	*	*clefC3	*	*	*clefC1	*
*k[b-]	*	*k[b-]	*	*k[b-]	*	*	*k[b-]	*	*	*k[b-]	*
*F:	*	*F:	*	*F:	*	*	*F:	*	*	*F:	*
*M3/2	*	*M3/2	*	*M3/2	*	*	*M3/2	*	*	*M3/2	*
=1-	=1-	=1-	=1-	=1-	=1-	=1-	=1-	=1-	=1-	=1-	=1-
!LO:TX:a:t=P:problem=znaki BB- B-	!	!LO:TX:a:t=P:problem=znaki BB- G- (omyłkowo), od drugiej linijki BB- B-	!	!	!	!	!	!	!	!	!
2r	.	2r	.	2r	.	.	2r	.	.	2r	.
*2\right	*	*2\right	*	*2\right	*	*	*2\right	*	*	*2\right	*
!LO:TX:t=P:problem=Inicjał "I" przed kluczem	!	!LO:TX:t=P:problem=Inicjał "I" przed kluczem	!	!LO:TX:t=P:problem=Inicjał "I" przed kluczem	!	!	!LO:TX:t=P:problem=Inicjał "I" przed kluczem	!	!	!LO:TX:t=P:problem=Inicjał "I" przed kluczem	!
!LO:TX:a:i:t=Lente	!	!LO:TX:a:t=Lentè	!	!	!	!	!	!	!	!	!
2G\|	Is-	2G\	Is-	2B-X\	Is-	.	2g\	I-	.	2dd\	I-
!LO:TX:t=P:problem=kreska pseudotaktowa	!	!LO:TX:t=P:problem=kreska pseudotaktowa	!	!LO:TX:t=P:problem=kreska pseudotaktowa	!	!	!LO:TX:t=P:problem=kreska pseudotaktowa	!	!	!LO:TX:t=P:problem=kreska pseudotaktowa	!
2D\|	-te	2D\	-te	2A\	-te	.	2f#X\	-ste	.	2dd\	-ste
=2-	=2-	=2-	=2-	=2-	=2-	=2-	=2-	=2-	=2-	=2-	=2-
!LO:TX:a:t=P:global:problem=rozdzielacz słów	!	!LO:TX:a:t=P:global:problem=rozdzielacz słów	!	!LO:TX:a:t=P:global:problem=rozdzielacz słów	!	!	!LO:TX:a:t=P:global:problem=rozdzielacz słów	!	!	!LO:TX:a:t=P:global:problem=rozdzielacz słów	!
2GG,</	est	2GG,</	est	2B-,<\	est	.	2g,<\	est	.	2dd,<\	est
!	!	!	!	!	!	!	!	!	!	!LO:TX:t=P:problem=kreska pseudotaktowa	!
(2E-X\	qui	(2E-X\	qui	(2B-\	qui	.	(2g\	Qui	.	1ee-X	Qui
!LO:TX:t=P:problem=kreska pseudotaktowa	!	!LO:TX:t=P:problem=kreska pseudotaktowa	!	!LO:TX:t=P:problem=kreska pseudotaktowa	!	!	!LO:TX:t=P:problem=kreska pseudotaktowa	!	!	!	!
2C/)	.	2C/)	.	2c\)	.	.	2e-X\)	.	.	.	.
=3-	=3-	=3-	=3-	=3-	=3-	=3-	=3-	=3-	=3-	=3-	=3-
(2BB-/	an-	(2BB-/	an-	2d\	an-	.	(2fny\	an-	.	2dd\	an-
!	!	!	!	!LO:TX:t=P:problem=kreska pseudotaktowa	!	!	!	!	!	!	!
2B-\)	.	2B-\)	.	1B-	-te	.	2d\)	.	.	(2f/	-te
!LO:TX:t=P:problem=kreska pseudotaktowa	!	!LO:TX:t=P:problem=kreska pseudotaktowa	!	!	!	!	!LO:TX:t=P:problem=kreska pseudotaktowa	!	!	!LO:TX:t=P:problem=kreska pseudotaktowa	!
2G\	-te	2G\	-te	.	.	.	2en\	-te	.	2g/)	.
=4-	=4-	=4-	=4-	=4-	=4-	=4-	=4-	=4-	=4-	=4-	=4-
1F	De-	1F	De-	1c	D-	.	1f	De-	.	1a	De-
!LO:TX:t=P:problem=kreska pseudotaktowa	!	!LO:TX:t=P:problem=kreska pseudotaktowa	!	!LO:TX:t=P:problem=kreska pseudotaktowa	!	!	!LO:TX:t=P:problem=kreska pseudotaktowa	!	!	!LO:TX:t=P:problem=kreska pseudotaktowa	!
2F,<\	-u(m)	2F,<\	-um	2c,<\	-Eum,	.	2f\	-um	.	2a,<\	-um
=5-	=5-	=5-	=5-	=5-	=5-	=5-	=5-	=5-	=5-	=5-	=5-
2F,<\	qui	2F,<\	Qui	2c,<\	Qui	.	2f,<\	Qui	.	2a,<\	Qui
2F\	an-	2F\	an-	2f\	an-	.	2an\	an-	.	2cc\	an-
!LO:TX:t=P:problem=kreska pseudotaktowa	!	!LO:TX:t=P:problem=kreska pseudotaktowa	!	!LO:TX:t=P:problem=kreska pseudotaktowa	!	!	!LO:TX:t=P:problem=kreska pseudotaktowa	!	!	!LO:TX:t=P:problem=kreska pseudotaktowa	!
2G\	-te	2G\	-te	2d\	-te	.	2g\	-te	.	2b-\	-te
=6-	=6-	=6-	=6-	=6-	=6-	=6-	=6-	=6-	=6-	=6-	=6-
(2A\	De-	(2A\	De-	1c	D-	.	1f	De-	.	2a\	De-
2F\)	.	2F\)	.	.	.	.	.	.	.	(2a\	-um
*	*	*	*	*custos:c	*	*	*	*	*	*custos:a	*
!LO:TX:t=P:problem=kreska pseudotaktowa	!	!	!	!	!	!	!	!	!	!	!
!	!	!	!	!LO:TX:t=P:problem=kreska pseudotaktowa	!	!	!LO:TX:t=P:problem=kreska pseudotaktowa	!	!	!LO:TX:t=P:problem=kreska pseudotaktowa	!
2C,</	-um	2C,</	-um	2c\	-Eum	.	2e\	-um	.	2g,</)	.
!	!	!LO:LB:g=original	!	!LO:LB:g=original	!	!	!LO:LB:g=original	!	!	!LO:LB:g=original	!
=7-	=7-	=7-	=7-	=7-	=7-	=7-	=7-	=7-	=7-	=7-	=7-
2F\	ma-	2F\	ma-	2c\	ma-	.	2f\	ma-	.	2a\	ma-
2F\	-gnas	2F,<\	-gnas	2c\	-gnas	.	2a\	-gnas	.	2a,<\	-gnas
!LO:TX:t=P:problem=kreska pseudotaktowa	!	!LO:TX:t=P:problem=kreska pseudotaktowa	!	!LO:TX:t=P:problem=kreska pseudotaktowa	!	!	!LO:TX:t=P:problem=kreska pseudotaktowa	!	!	!LO:TX:t=P:problem=kreska pseudotaktowa	!
2En\	Vir-	2En\	Vir-	2G/	vir-	.	2g\	Vir-	.	2cc\	Vir-
=8-	=8-	=8-	=8-	=8-	=8-	=8-	=8-	=8-	=8-	=8-	=8-
1D	-tu-	1D	-tu-	(2A\	-tu-	.	1f	-tu-	.	1dd	-tu-
.	.	.	.	2B-\)	.	.	.	.	.	.	.
!	!	!LO:TX:t=P:problem=kreska pseudotaktowa	!	!LO:TX:t=P:problem=kreska pseudotaktowa	!	!	!LO:TX:t=P:problem=kreska pseudotaktowa	!	!	!LO:TX:t=P:problem=kreska pseudotaktowa	!
2C,</	-tes	2C,</	-tes	2c\	-tes	.	2e\	-tes	.	2a\	-tes
=9-	=9-	=9-	=9-	=9-	=9-	=9-	=9-	=9-	=9-	=9-	=9-
(2BB-/	o-	(2BB-X/	o-	2F/	o-	.	(2d\	o-	.	1b-X	o-
2B-X\)	.	2B-\)	.	2G/	.	.	2e\)	.	.	.	.
!	!	!	!	!LO:TX:t=P:problem=kreska pseudotaktowa	!	!	!LO:TX:t=P:problem=kreska pseudotaktowa	!	!	!	!
2A\	-pe-	2A\	-pe-	2A\	-pe-	.	2f\	-pe-	.	2cc\	-pe-
=10-	=10-	=10-	=10-	=10-	=10-	=10-	=10-	=10-	=10-	=10-	=10-
1G	-ra-	1G	-ra-	1B-	-ra-	.	1f	-ra-	.	1dd	-ra-
2G\	-t(us)	2G\	-t(us)	2B-\	-t(us)	.	2e\	-t(us)	.	2b-\	-t(us)
=11-	=11-	=11-	=11-	=11-	=11-	=11-	=11-	=11-	=11-	=11-	=11-
!LO:TX:t=P:problem=kreska pseudotaktowa	!	!LO:TX:t=P:problem=kreska pseudotaktowa	!	!LO:TX:t=P:problem=kreska pseudotaktowa	!	!	!LO:TX:t=P:problem=kreska pseudotaktowa	!	!	!LO:TX:t=P:problem=kreska pseudotaktowa	!
1.F,<	est.	1.F,<	est:	1.A,<	est:	.	1.f	est.	.	1.cc,<	est:
=12-	=12-	=12-	=12-	=12-	=12-	=12-	=12-	=12-	=12-	=12-	=12-
2C/	et	2C/	Et	2G/	et	.	2en\	Et	.	2cc\	et
2C/	de	2C/	de	2G/	de	.	2e\	de	.	2cc\	de
!	!	!	!	!LO:TX:t=P:problem=kreska pseudotaktowa	!	!	!LO:TX:t=P:problem=kreska pseudotaktowa	!	!	!	!
2F\	om-	2Fn\	om-	2A\	om-	.	2f\	om-	.	4cc\	om-
.	.	.	.	.	.	.	.	.	.	4dd\	-ni
=13-	=13-	=13-	=13-	=13-	=13-	=13-	=13-	=13-	=13-	=13-	=13-
2E-X,<\	-ni	2E-X,<\	-ni	2B-X,<\	-ni	.	2g,<\	-ni	.	2ee-X\	Cor-
2E-\	Cor-	2E-\	cor-	2B-\	Cor-	.	2g\	Cor-	.	4ee-\	-de
.	.	.	.	.	.	.	.	.	.	4dd\	.
!LO:TX:t=P:problem=kreska pseudotaktowa	!	!LO:TX:t=P:problem=kreska pseudotaktowa	!	!LO:TX:t=P:problem=kreska pseudotaktowa	!	!	!LO:TX:t=P:problem=kreska pseudotaktowa	!	!	!LO:TX:t=P:problem=kreska pseudotaktowa	!
2F\	-de	2F\	-de	2A\	-de	.	2f\	-de	.	2cc\	.
!LO:LB:g=original	!	!	!	!	!	!	!	!	!	!	!
=14-	=14-	=14-	=14-	=14-	=14-	=14-	=14-	=14-	=14-	=14-	=14-
1C	su-	1C	su-	1G	su-	.	1e-X	su-	.	1cc	su-
*	*	*	*	*	*	*	*custos:c	*	*	*	*
!LO:TX:t=P:problem=kreska pseudotaktowa	!	!LO:TX:t=P:problem=kreska pseudotaktowa	!	!LO:TX:t=P:problem=kreska pseudotaktowa	!	!	!	!	!	!	!
!	!	!	!	!	!	!	!LO:TX:t=P:problem=kreska pseudotaktowa	!	!	!LO:TX:t=P:problem=kreska pseudotaktowa	!
2C,</	-o	2C/	-o	2G,</	-o,	.	2e-\	-o	.	2cc\	-o
!	!	!	!	!LO:LB:g=original	!	!	!LO:LB:g=original	!	!	!	!
=15-	=15-	=15-	=15-	=15-	=15-	=15-	=15-	=15-	=15-	=15-	=15-
(2F\	lau-	(2F\	lau-	(2F/	Lau-	.	(<2c/	lau-	.	(2an\	lau-
!	!	!	!	!	!	!	!LO:TX:t=P:problem=kreska pseudotaktowa	!	!	!	!
2E-X\)	.	2E-X\)	.	2G/)	.	.	1e-X)	.	.	2b-\)	.
!LO:TX:t=P:problem=kreska pseudotaktowa	!	!LO:TX:t=P:problem=kreska pseudotaktowa	!	!LO:TX:t=P:problem=kreska pseudotaktowa	!	!	!	!	!	!LO:TX:t=P:problem=kreska pseudotaktowa	!
2C/	.	2C/	.	2A\	-da-	.	.	.	.	2cc\	.
!	!	!LO:LB:g=original	!	!	!	!	!	!	!	!LO:LB:g=original	!
=16-	=16-	=16-	=16-	=16-	=16-	=16-	=16-	=16-	=16-	=16-	=16-
2BB-/	-da-	2BB-/	-da-	2B-X\	.	.	2f\	-da-	.	2dd\	-da-
2BB-,</	-vit	2BB-,</	-vit	2B-,<\	-vit	.	2f\	-vit	.	2dd\	-vit
!LO:TX:t=P:problem=kreska pseudotaktowa	!	!LO:TX:t=P:problem=kreska pseudotaktowa	!	!LO:TX:t=P:problem=kreska pseudotaktowa	!	!	!LO:TX:t=P:problem=kreska pseudotaktowa	!	!	!LO:TX:t=P:problem=kreska pseudotaktowa	!
(2F\	Do-	(2F\	Do-	2A\	Do-	.	(2f\	Do-	.	2cc\	Do-
=17-	=17-	=17-	=17-	=17-	=17-	=17-	=17-	=17-	=17-	=17-	=17-
2G\)	.	2G\)	.	1G	.	.	1d)	.	.	2b-\	.
2.D\	.	2.D\	.	.	.	.	.	.	.	2.a\	.
.	.	.	.	2F#X/	-mi-	.	2d\	-mi-	.	.	.
4D\	-mi-	4D\	-mi-	.	.	.	.	.	.	4a\	-mi-
=18-	=18-	=18-	=18-	=18-	=18-	=18-	=18-	=18-	=18-	=18-	=18-
*M2/1	*	*M2/1	*	*M2/1	*	*	*M2/1	*	*	*M2/1	*
*met(C|)	*	*met(C|)	*	*met(C|)	*	*	*met(C|)	*	*	*met(C|)	*
!	!	!	!	!	!	!	!LO:TX:t=P:problem=kreska pseudotaktowa	!	!	!	!
2GG,</	-num	2GG,</	-num	2G,</	-num	.	1d	-num	.	2b-,<\	-num
!LO:TX:t=P:problem=kreska pseudotaktowa	!	!LO:TX:t=P:problem=kreska pseudotaktowa	!	!	!	!	!	!	!	!	!
2G\	Lau-	2G\	Lau-	2G/	Lau-	.	.	.	.	2b-\	Lau-
!	!	!	!	!	!	!	!	!	!	!LO:TX:t=P:problem=kreska pseudotaktowa	!
2G\	-da-	2G\	-da-	(1Bn	-da-	.	2r	.	.	1dd	-da-
!LO:TX:t=P:problem=kreska pseudotaktowa	!	!LO:TX:t=P:problem=kreska pseudotaktowa	!	!	!	!	!LO:TX:t=P:problem=kreska pseudotaktowa	!	!	!	!
2G\	-vit	2G\	-vit	.	.	.	2g\	Lau-	.	.	.
=19-	=19-	=19-	=19-	=19-	=19-	=19-	=19-	=19-	=19-	=19-	=19-
(2E-X\	Do-	(2E-X\	Do-	2c\)	.	.	2g\	-da-	.	2ee-X\	-vit
!LO:TX:t=P:problem=kreska pseudotaktowa	!	!	!	!LO:TX:t=P:problem=kreska pseudotaktowa	!	!	!LO:TX:t=P:problem=kreska pseudotaktowa	!	!	!LO:TX:t=P:problem=kreska pseudotaktowa	!
2C/)	.	2C/)	.	2c,<\	-vit	.	2g\	-vit	.	2ee-\	Do-
2.G\	.	2.G\	.	2.B-X\	Do-	.	2.g\	Do-	.	2.dd\	.
!LO:TX:t=P:problem=kreska pseudotaktowa	!	!LO:TX:t=P:problem=kreska pseudotaktowa	!	!	!	!	!LO:TX:t=P:problem=kreska pseudotaktowa	!	!	!LO:TX:t=P:problem=kreska pseudotaktowa	!
4G\	-mi-	4G\	-mi-	4B-\	-mi-	.	4g\	-mi-	.	4dd\	-mi-
=20-	=20-	=20-	=20-	=20-	=20-	=20-	=20-	=20-	=20-	=20-	=20-
4G,<\	-nu(m)	4G,<\	-num	4B-,<\	-num	.	4g,<\	-nu(m)	.	4dd,<\	-nus
4B-\	Lau-	4B-\	Lau-	4d\	Lau-	.	4f\	lau-	.	4b-\	Lau-
!LO:TX:t=P:problem=kreska pseudotaktowa	!	!LO:TX:t=P:problem=kreska pseudotaktowa	!	!LO:TX:t=P:problem=kreska pseudotaktowa	!	!	!LO:TX:t=P:problem=kreska pseudotaktowa	!	!	!LO:TX:t=P:problem=kreska pseudotaktowa	!
2F\	-da-	2F\	-da-	2c\	-da-	.	2f\	-da-	.	2a\	-da-
2BB-,</	-vit.	2BB-,</	-vit.	2d,<\	-vit.	.	2f,<\	-vit	.	2b-\	-vit.
!	!	!	!	!	!	!	!LO:TX:t=P:problem=kreska pseudotaktowa	!	!	!LO:TX:t=P:problem=kreska pseudotaktowa	!
1B-\	I-	1B-\	I-	1d\	I-	.	2r	.	.	2r	.
=21-	=21-	=21-	=21-	=21-	=21-	=21-	=21-	=21-	=21-	=21-	=21-
!	!	!	!	!	!	!	!	!	!	!LO:TX:t=P:problem=kreska pseudotaktowa	!
.	.	.	.	.	.	.	0r	.	.	0r	.
*	*	*	*	*custos:c	*	*	*	*	*	*	*
!LO:TX:t=P:problem=kreska pseudotaktowa	!	!LO:TX:t=P:problem=kreska pseudotaktowa	!	!	!	!	!	!	!	!	!
!	!	!	!	!LO:TX:t=P:problem=kreska pseudotaktowa	!	!	!	!	!	!	!
2B-\	-pse	2B-\	-pse	2d\	-pse	.	.	.	.	.	.
!	!	!LO:LB:g=original	!	!LO:LB:g=original	!	!	!	!	!	!	!
2.An\	in-	2.An\	in-	2.c\	in-	.	.	.	.	.	.
!	!	!LO:TX:t=P:problem=kreska pseudotaktowa	!	!	!	!	!	!	!	!	!
4G\	-ter-	4G\	-ter-	4B-\	-ter-	.	.	.	.	.	.
=22-	=22-	=22-	=22-	=22-	=22-	=22-	=22-	=22-	=22-	=22-	=22-
(4F\	-ce-	4F\	-ce-	4A/	-ce-	.	2r	.	.	2r	.
4Eny\	.	(4Eny\	.	4G/	.	.	.	.	.	.	.
4D\	.	4D\	.	4Fny/	.	.	1f\	I-	.	1dd\	I-
!LO:TX:t=P:problem=kreska pseudotaktowa	!	!LO:TX:t=P:problem=kreska pseudotaktowa	!	!	!	!	!	!	!	!	!
4C\)	.	4C\)	.	4E/	.	.	.	.	.	.	.
1BB-	.	1BB-	.	1D	.	.	.	.	.	.	.
*	*	*	*	*	*	*	*custos:e-	*	*	*custos:cc	*
!	!	!	!	!	!	!	!LO:TX:t=P:problem=kreska pseudotaktowa	!	!	!LO:TX:t=P:problem=kreska pseudotaktowa	!
.	.	.	.	.	.	.	2f\	-pse	.	2dd\	-pse
!	!	!	!	!	!	!	!LO:LB:g=original	!	!	!LO:LB:g=original	!
=23-	=23-	=23-	=23-	=23-	=23-	=23-	=23-	=23-	=23-	=23-	=23-
!	!	!	!	!LO:TX:t=P:problem=kreska pseudotaktowa	!	!	!	!	!	!	!
0C	.	0C	.	1G,<	-dat	.	2.e-X\	in-	.	2.cc\	in-
!	!	!	!	!	!	!	!LO:TX:t=P:problem=kreska pseudotaktowa	!	!	!LO:TX:t=P:problem=kreska pseudotaktowa	!
.	.	.	.	.	.	.	4d\	-ter-	.	4b-\	-ter-
.	.	.	.	2.c\	in-	.	4c/	-ce-	.	4a\	-ce-
.	.	.	.	.	.	.	4B-/	.	.	4g\	.
.	.	.	.	.	.	.	4A/	.	.	1cc\	.
!	!	!	!	!LO:TX:t=P:problem=kreska pseudotaktowa	!	!	!LO:TX:t=P:problem=kreska pseudotaktowa	!	!	!	!
.	.	.	.	4B-\	-ter-	.	4G/	.	.	.	.
=24-	=24-	=24-	=24-	=24-	=24-	=24-	=24-	=24-	=24-	=24-	=24-
0D	.	0D	.	(2A\	-ce-	.	2f#X\	.	.	.	.
.	.	.	.	4B-\	.	.	1g\	.	.	2b-X\	.
.	.	.	.	4c\)	.	.	.	.	.	.	.
!	!	!	!	!	!	!	!	!	!	!LO:TX:t=P:problem=kreska pseudotaktowa	!
.	.	.	.	2d\	.	.	.	.	.	1a	.
!	!	!	!	!LO:TX:t=P:problem=kreska pseudotaktowa	!	!	!	!	!	!	!
.	.	.	.	2d,<\	-dat	.	2f#X\	.	.	.	.
=25-	=25-	=25-	=25-	=25-	=25-	=25-	=25-	=25-	=25-	=25-	=25-
!	!	!	!	!	!	!	!LO:TX:t=P:problem=kreska pseudotaktowa	!	!	!	!
2GG,</	-dat	2GG,</	-dat	(2.d\	pro	.	1g,<	-dat	.	2b-,<\	-dat
1G\	pro	1G\	pro	.	.	.	.	.	.	1b-\	pro
.	.	.	.	4c\)	.	.	.	.	.	.	.
.	.	.	.	2B-,<\	.	.	2g\	pro	.	.	.
!LO:TX:t=P:problem=kreska pseudotaktowa	!	!LO:TX:t=P:problem=kreska pseudotaktowa	!	!LO:TX:t=P:problem=kreska pseudotaktowa	!	!	!	!	!	!LO:TX:t=P:problem=kreska pseudotaktowa	!
2F\	pec-	2F\	pec-	2A\	pec-	.	2a\	pec-	.	2dd\	pec-
!LO:LB:g=original	!	!	!	!	!	!	!	!	!	!	!
=26-	=26-	=26-	=26-	=26-	=26-	=26-	=26-	=26-	=26-	=26-	=26-
1E-X	-ca-	1E-X	-ca-	2B-\	-ca-	.	1g	-ca-	.	(2dd\	-ca-
!	!	!	!	!	!	!	!	!	!	!LO:TX:t=P:problem=kreska pseudotaktowa	!
.	.	.	.	2G/	.	.	.	.	.	2cc\)	.
!LO:TX:t=P:problem=kreska pseudotaktowa	!	!LO:TX:t=P:problem=kreska pseudotaktowa	!	!LO:TX:t=P:problem=kreska pseudotaktowa	!	!	!LO:TX:t=P:problem=kreska pseudotaktowa	!	!	!	!
1D,<	-tis	1D,<	-tis	1A	-tis	.	1f#X,<	-tis	.	2dd,<\	-tis
.	.	.	.	.	.	.	.	.	.	2.dd\	om-
=27-	=27-	=27-	=27-	=27-	=27-	=27-	=27-	=27-	=27-	=27-	=27-
2.G\	om-	2.G\	om-	2.Bn\	om-	.	2.g\	om-	.	.	.
.	.	.	.	.	.	.	.	.	.	4dd\	-ni-
!	!	!	!	!	!	!	!	!	!	!LO:TX:t=P:problem=kreska pseudotaktowa	!
.	.	.	.	.	.	.	.	.	.	2dd\	-u(m)
!LO:TX:t=P:problem=kreska pseudotaktowa	!	!LO:TX:t=P:problem=kreska pseudotaktowa	!	!LO:TX:t=P:problem=kreska pseudotaktowa	!	!	!LO:TX:t=P:problem=kreska pseudotaktowa	!	!	!	!
4G\	-ni-	4G\	-ni-	4B\	-ni-	.	4g\	-ni-	.	.	.
!	!	!	!	!LO:LB:g=original	!	!	!	!	!	!	!
2G,<\	-u(m)	2G,<\	-u(m)	2Bn\	-um	.	2g\	-u(m)	.	2g/	po-
!LO:TX:t=P:problem=kreska pseudotaktowa	!	!LO:TX:t=P:problem=kreska pseudotaktowa	!	!	!	!	!LO:TX:t=P:problem=kreska pseudotaktowa	!	!	!LO:TX:t=P:problem=kreska pseudotaktowa	!
2C/	po-	(2C/	po-	1c\	po-	.	2en\	po-	.	2g/	-pu-
=28-	=28-	=28-	=28-	=28-	=28-	=28-	=28-	=28-	=28-	=28-	=28-
2F\	-pu-	2F\)	-pu-	.	.	.	2.fny\	.	.	(2a\	-lo-
!	!	!LO:TX:t=P:problem=kreska pseudotaktowa	!	!LO:TX:t=P:problem=kreska pseudotaktowa	!	!	!	!	!	!	!
2D/	-lo-	2D/	-lo-	2F/	-pu-	.	.	.	.	2b-\)	.
!	!	!	!	!	!	!	!LO:TX:t=P:problem=kreska pseudotaktowa	!	!	!	!
.	.	.	.	.	.	.	4f\	-pu-	.	.	.
*	*	*custos:BB	*	*	*	*	*	*	*	*	*
!	!	!LO:TX:t=P:problem=kreska pseudotaktowa	!	!	!	!	!LO:TX:t=P:problem=kreska pseudotaktowa	!	!	!	!
1C	.	1C	.	(2G/	-lo-	.	1e-X	-lo-	.	1cc	.
!	!	!	!	!LO:TX:t=P:problem=kreska pseudotaktowa	!	!	!	!	!	!	!
.	.	.	.	2A/)	.	.	.	.	.	.	.
!	!	!LO:LB:g=original	!	!	!	!	!	!	!	!	!
=29-	=29-	=29-	=29-	=29-	=29-	=29-	=29-	=29-	=29-	=29-	=29-
!	!	!	!	!	!	!	!LO:TX:t=P:problem=kreska pseudotaktowa	!	!	!LO:TX:t=P:problem=kreska pseudotaktowa	!
2BB-,</	-rum	2BB-,</	-rum	2B-y,<\	-rum,	.	1d,<	-rum	.	1f,<	-rum.
1B-\	om-	1B-\	Om-	1d\	Om-	.	.	.	.	.	.
!	!	!	!	!	!	!	!LO:LB:g=original	!	!	!	!
!	!	!	!	!	!	!	!LO:TX:t=P:problem=kreska pseudotaktowa	!	!	!LO:TX:t=P:problem=kreska pseudotaktowa	!
.	.	.	.	.	.	.	0r	.	.	0r	.
4B-\	-ni-	4B-\	-ni-	4d\	-ni-	.	.	.	.	.	.
!LO:TX:t=P:problem=kreska pseudotaktowa	!	!LO:TX:t=P:problem=kreska pseudotaktowa	!	!LO:TX:t=P:problem=kreska pseudotaktowa	!	!	!	!	!	!	!
4B-\	-u(m)	4B-\	-um	4d\	-um	.	.	.	.	.	.
=30-	=30-	=30-	=30-	=30-	=30-	=30-	=30-	=30-	=30-	=30-	=30-
2A\	po-	2A\	Po-	2c\	po-	.	.	.	.	.	.
!	!	!LO:TX:t=P:problem=kreska pseudotaktowa	!	!LO:TX:t=P:problem=kreska pseudotaktowa	!	!	!	!	!	!	!
2G\	-pu-	2G\	-pu-	2B-\	-pu-	.	.	.	.	.	.
!	!	!	!	!	!	!	!	!	!	!LO:LB:g=original	!
!	!	!	!	!	!	!	!LO:TX:t=P:problem=kreska pseudotaktowa	!	!	!LO:TX:t=P:problem=kreska pseudotaktowa	!
2F\	-lo-	2F\	-lo-	2A/	-lo-	.	[<1a	O-	.	[<1ff	O-
4D\	.	(4D\	.	(4F/	.	.	.	.	.	.	.
!LO:TX:t=P:problem=kreska pseudotaktowa	!	!LO:TX:t=P:problem=kreska pseudotaktowa	!	!	!	!	!	!	!	!	!
4Eny\	.	4Eny\)	.	4G/)	.	.	.	.	.	.	.
=31-	=31-	=31-	=31-	=31-	=31-	=31-	=31-	=31-	=31-	=31-	=31-
(4F\	.	4F\	.	4A\	.	.	2a\]	.	.	2ff]	.
4G\	.	(4G\	.	4B-\	.	.	.	.	.	.	.
4A\)	.	4A\)	.	4c\	.	.	4a\	-mni-	.	4ff\	-mni-
!	!	!LO:TX:t=P:problem=kreska pseudotaktowa	!	!LO:TX:t=P:problem=kreska pseudotaktowa	!	!	!LO:TX:t=P:problem=kreska pseudotaktowa	!	!	!LO:TX:t=P:problem=kreska pseudotaktowa	!
4F\	.	4F\	.	4A\	.	.	4a\	-um	.	4ff\	-um
!	!	!LO:TX:t=P:problem=kreska pseudotaktowa	!	!	!	!	!	!	!	!	!
*lig	*	*lig	*	*	*	*	*	*	*	*	*
1G	.	1G	.	(2B-\	.	.	2g\	po-	.	4een\	po-
.	.	.	.	.	.	.	.	.	.	4dd\	-pu-
!	!	!	!	!	!	!	!LO:TX:t=P:problem=kreska pseudotaktowa	!	!	!	!
.	.	.	.	2d\)	.	.	2f\	-pu-	.	1dd\	-lo-
=32-	=32-	=32-	=32-	=32-	=32-	=32-	=32-	=32-	=32-	=32-	=32-
!	!	!	!	!LO:TX:t=P:problem=kreska pseudotaktowa	!	!	!	!	!	!	!
1A	.	1A	.	1A	-rum	.	1en	-lo-	.	.	.
.	.	.	.	.	.	.	.	.	.	2cc#X\	.
*Xlig	*	*Xlig	*	*	*	*	*	*	*	*	*
!	!	!	!	!	!	!	!LO:TX:t=P:problem=kreska pseudotaktowa	!	!	!LO:TX:t=P:problem=kreska pseudotaktowa	!
2D,</	-rum	2D,</	-rum	2r	.	.	1f,<	-rum	.	0dd,<	-rum
1D\	o(m-	1D\	Om-	1f\	om-	.	.	.	.	.	.
=33-	=33-	=33-	=33-	=33-	=33-	=33-	=33-	=33-	=33-	=33-	=33-
.	.	.	.	.	.	.	2r	.	.	.	.
4D/	-n)i-	4D/	-ni-	4f\	-ni-	.	(2d\	O-	.	.	.
*	*	*	*	*custos:en	*	*	*	*	*	*	*
!LO:TX:t=P:problem=kreska pseudotaktowa	!	!LO:TX:t=P:problem=kreska pseudotaktowa	!	!	!	!	!	!	!	!	!
!	!	!	!	!LO:TX:t=P:problem=kreska pseudotaktowa	!	!	!	!	!	!	!
4D/	-u(m)	4D/	-u(m)	4f\	-um	.	.	.	.	.	.
!	!	!	!	!LO:LB:g=original	!	!	!	!	!	!	!
2.C/	po-	2.C/	po-	2.en\	Po-	.	2g\)	.	.	2r	.
.	.	.	.	.	.	.	4g\	-mni-	.	1ccny\	om-
!	!	!	!	!LO:TX:t=P:problem=kreska pseudotaktowa	!	!	!LO:TX:t=P:problem=kreska pseudotaktowa	!	!	!	!
4BB-/	-pu-	4BB-/	-pu-	4d\	-pu-	.	4g\	-u(m)	.	.	.
=34-	=34-	=34-	=34-	=34-	=34-	=34-	=34-	=34-	=34-	=34-	=34-
4AA/	-lo-	4AA/	-lo-	(4c\	-lo-	.	2f\	po-	.	.	.
(4BB-/	.	4BB-/	.	4d\	.	.	.	.	.	.	.
!	!	!	!	!	!	!	!LO:TX:t=P:problem=kreska pseudotaktowa	!	!	!	!
4C/)	.	4C/	.	4e\)	.	.	2en\	-pu-	.	4cc\	-ni-
!LO:TX:t=P:problem=kreska pseudotaktowa	!	!LO:TX:t=P:problem=kreska pseudotaktowa	!	!LO:TX:t=P:problem=kreska pseudotaktowa	!	!	!	!	!	!LO:TX:t=P:problem=kreska pseudotaktowa	!
4AA/	.	4AA/	.	4c\	.	.	.	.	.	4cc\	-um
!	!	!LO:LB:g=original	!	!	!	!	!	!	!	!	!
1BB-	.	1BB-	.	1d	.	.	4d\	-lo-	.	2b-X\	po-
.	.	.	.	.	.	.	4e\	.	.	.	.
.	.	.	.	.	.	.	4f\	.	.	2a\	-pu-
!	!	!	!	!	!	!	!LO:TX:t=P:problem=kreska pseudotaktowa	!	!	!	!
.	.	.	.	.	.	.	4d\	.	.	.	.
=35-	=35-	=35-	=35-	=35-	=35-	=35-	=35-	=35-	=35-	=35-	=35-
!	!	!	!	!	!	!	!	!	!	!LO:TX:t=P:problem=kreska pseudotaktowa	!
1C	.	1C	.	1.c	.	.	4en\	.	.	1g	-lo-
.	.	.	.	.	.	.	4f\	.	.	.	.
.	.	.	.	.	.	.	4g\	.	.	.	.
!	!	!	!	!	!	!	!LO:TX:t=P:problem=kreska pseudotaktowa	!	!	!	!
.	.	.	.	.	.	.	4e\	.	.	.	.
!	!	!	!	!	!	!	!LO:LB:g=original	!	!	!	!
0D	.	0D	.	.	.	.	2f#X\	.	.	2d,</	-rum
*	*	*	*	*	*	*	*	*	*	*	*ij
!	!	!	!	!LO:TX:t=P:problem=kreska pseudotaktowa	!	!	!	!	!	!LO:TX:t=P:problem=kreska pseudotaktowa	!
.	.	.	.	2B-\	.	.	1g\	.	.	1dd\	om-
=36-	=36-	=36-	=36-	=36-	=36-	=36-	=36-	=36-	=36-	=36-	=36-
.	.	.	.	2A,<\	-rum	.	.	.	.	.	.
.	.	.	.	1d\	om-	.	2f#X\	.	.	4dd\	-ni-
!	!	!	!	!	!	!	!	!	!	!LO:TX:t=P:problem=kreska pseudotaktowa	!
.	.	.	.	.	.	.	.	.	.	4cc\	-um
!	!	!	!	!	!	!	!LO:TX:t=P:problem=kreska pseudotaktowa	!	!	!	!
2GG,</	-rum	2GG,</	-rum	.	.	.	1g,<	-rum.	.	4b-\	po-
.	.	.	.	.	.	.	.	.	.	4b-\	-pu-
1G\	om-	1G\	Om-	4d\	-ni-	.	.	.	.	2b-\	-lo-
!	!	!	!	!LO:TX:t=P:problem=kreska pseudotaktowa	!	!	!	!	!	!	!
.	.	.	.	4d\	-u(m)	.	.	.	.	.	.
=37-	=37-	=37-	=37-	=37-	=37-	=37-	=37-	=37-	=37-	=37-	=37-
!	!	!	!	!	!	!	!	!	!	!LO:TX:t=P:problem=kreska pseudotaktowa	!
.	.	.	.	1B-	po-	.	2r	.	.	1g	-rum
*	*	*	*	*	*	*	*	*	*	*	*Xij
4G\	-ni-	4G\	-ni-	.	.	.	1g\	O-	.	.	.
*custos:E-	*	*	*	*	*	*	*	*	*	*	*
!LO:TX:t=P:problem=kreska pseudotaktowa	!	!LO:TX:t=P:problem=kreska pseudotaktowa	!	!	!	!	!	!	!	!	!
4F\	-u(m)	4F\	-u(m)	.	.	.	.	.	.	.	.
!LO:LB:g=original	!	!	!	!	!	!	!	!	!	!LO:LB:g=original	!
2E-X\	Po-	2E-X\	Po-	2G/	-pu-	.	.	.	.	2r	.
!	!	!	!	!LO:TX:t=P:problem=kreska pseudotaktowa	!	!	!	!	!	!	!
4E-\	-pu-	2E-\	-pu-	[<2G/	-lo-	.	4g\	-mni-	.	1cc\	Om-
!LO:TX:t=P:problem=kreska pseudotaktowa	!	!	!	!	!	!	!LO:TX:t=P:problem=kreska pseudotaktowa	!	!	!	!
4D\	.	.	.	.	.	.	4g\	-u(m)	.	.	.
=38-	=38-	=38-	=38-	=38-	=38-	=38-	=38-	=38-	=38-	=38-	=38-
!	!	!	!	!LO:N:xstem:cue	!	!	!	!	!	!	!
1C	-lo-	(>1C	-lo-	4G/]	.	.	2fn\	po-	.	.	.
.	.	.	.	4F/	.	.	.	.	.	.	.
.	.	.	.	4E-X/	.	.	1e-X\	.	.	4cc\	-ni-
!	!	!	!	!	!	!	!	!	!	!LO:TX:t=P:problem=kreska pseudotaktowa	!
.	.	.	.	8D/L	.	.	.	.	.	4cc\	-um
.	.	.	.	8C/J	.	.	.	.	.	.	.
1BBn	.	1BBn	.	1D	.	.	.	.	.	2g/	Po-
!	!	!	!	!	!	!	!LO:TX:t=P:problem=kreska pseudotaktowa	!	!	!	!
.	.	.	.	.	.	.	2d\	-pu-	.	2g/	-pu-
=39-	=39-	=39-	=39-	=39-	=39-	=39-	=39-	=39-	=39-	=39-	=39-
!	!	!	!	!	!	!	!LO:TX:t=P:problem=kreska pseudotaktowa	!	!	!	!
1C	.	1C)	.	1G	.	.	1c	-lo-	.	1e-X	-lo-
!	!	!	!	!	!	!	!	!	!	!LO:TX:t=P:problem=wykreślona jedna nuta	!
1GGl;	-rum.	1GGl;	-rum.	1Gl;	-rum.	.	1Bnl;	-rum.	.	1dl;	-rum.
!	!	!	!	!LO:LB:g=original	!	!	!	!	!	!	!
=40||	=40||	=40||	=40||	=40||	=40||	=40||	=40||	=40||	=40||	=40||	=40||
*M3/2	*	*M3/2	*	*M3/2	*	*	*M3/2	*	*	*M3/2	*
2r	.	2r	.	2r	.	.	2r	.	.	2r	.
2B-\	Ec-	2B-X\	Ec-	2B-X\	Ec-	.	2fn\	Ec-	.	2dd\	Ec-
!LO:TX:t=P:problem=kreska pseudotaktowa	!	!LO:TX:t=P:problem=kreska pseudotaktowa	!	!LO:TX:t=P:problem=kreska pseudotaktowa	!	!	!LO:TX:t=P:problem=kreska pseudotaktowa	!	!	!LO:TX:t=P:problem=kreska pseudotaktowa	!
2B-\	-ce	2B-\	-ce	2B-\	-ce	.	2f\	-ce	.	2dd\	-ce
=41-	=41-	=41-	=41-	=41-	=41-	=41-	=41-	=41-	=41-	=41-	=41-
1B-	ho-	1B-	Ho-	1c	Ho-	.	1g	Ho-	.	1een	Ho-
*	*	*custos:A	*	*	*	*	*custos:f	*	*	*	*
!LO:TX:t=P:problem=kreska pseudotaktowa	!	!LO:TX:t=P:problem=kreska pseudotaktowa	!	!LO:TX:t=P:problem=kreska pseudotaktowa	!	!	!LO:TX:t=P:problem=kreska pseudotaktowa	!	!	!LO:TX:t=P:problem=kreska pseudotaktowa	!
2An\	-mo	2An\	-mo	2c,<\	-mo	.	2f#X\	-mo	.	2cc\	-mo
!	!	!LO:LB:g=original	!	!	!	!	!LO:LB:g=original	!	!	!	!
=42-	=42-	=42-	=42-	=42-	=42-	=42-	=42-	=42-	=42-	=42-	=42-
2A\	si-	2A\	si-	2c\	si-	.	2f#X\	si-	.	2cc\	si-
2G,<\	-ne	2G,<\	-ne	2B-X\	-ne	.	2g\	-ne	.	2dd\	-ne
!	!	!LO:TX:t=P:problem=kreska pseudotaktowa	!	!LO:TX:t=P:problem=kreska pseudotaktowa	!	!	!LO:TX:t=P:problem=kreska pseudotaktowa	!	!	!LO:TX:t=P:problem=kreska pseudotaktowa	!
2G\	que-	2G\	que-	2B-\	que-	.	2B-X/	que-	.	2een\	que-
=43-	=43-	=43-	=43-	=43-	=43-	=43-	=43-	=43-	=43-	=43-	=43-
1F	-re-	1F	-re-	1B-	-re-	.	1c	-re-	.	1ff	-re-
!LO:TX:t=P:problem=kreska pseudotaktowa	!	!LO:TX:t=P:problem=kreska pseudotaktowa	!	!LO:TX:t=P:problem=kreska pseudotaktowa	!	!	!LO:TX:t=P:problem=kreska pseudotaktowa	!	!	!LO:TX:t=P:problem=kreska pseudotaktowa	!
2F,<\	-la	2F,<\	-la	2A,<\	-la	.	2c/	-la	.	2ff,<\	-la,
=44-	=44-	=44-	=44-	=44-	=44-	=44-	=44-	=44-	=44-	=44-	=44-
1D	ve-	1D	Ve-	1B-	Ve-	.	(2.d\	ve-	.	1ff	ve-
.	.	.	.	.	.	.	4e-X\)	.	.	.	.
!	!	!LO:TX:t=P:problem=kreska pseudotaktowa	!	!LO:TX:t=P:problem=kreska pseudotaktowa	!	!	!LO:TX:t=P:problem=kreska pseudotaktowa	!	!	!LO:TX:t=P:problem=kreska pseudotaktowa	!
2D,<\	-r(us)	2D/	-r(us)	[<2B-\	-rus	.	2fny\	-r(us)	.	2ff\	-rus
!	!	!	!	!	!	!	!	!	!	!LO:LB:g=original	!
=45-	=45-	=45-	=45-	=45-	=45-	=45-	=45-	=45-	=45-	=45-	=45-
1E-X	De-	1E-X	De-	2B-\,<]	.	.	1g	De-	.	1ee-X	De-
.	.	.	.	2B-\	De-	.	.	.	.	.	.
!	!	!LO:TX:t=P:problem=kreska pseudotaktowa	!	!LO:TX:t=P:problem=kreska pseudotaktowa	!	!	!LO:TX:t=P:problem=kreska pseudotaktowa	!	!	!	!
2BB-/	-i	2BB-/	-i	2B-\	-u	.	2f\	-i	.	2dd,<\	-i
=46-	=46-	=46-	=46-	=46-	=46-	=46-	=46-	=46-	=46-	=46-	=46-
1F	Cul-	1F	Cul-	1B-	Cul-	.	1f	Cul-	.	1cc	Cul-
!LO:TX:t=P:problem=kreska pseudotaktowa	!	!LO:TX:t=P:problem=kreska pseudotaktowa	!	!LO:TX:t=P:problem=kreska pseudotaktowa	!	!	!LO:TX:t=P:problem=kreska pseudotaktowa	!	!	!LO:TX:t=P:problem=kreska pseudotaktowa	!
2F,<\	-tor.	2F\	-tor.	2A,<\	-tor.	.	2f,<\	-tor.	.	2cc,<\	-tor:
=47-	=47-	=47-	=47-	=47-	=47-	=47-	=47-	=47-	=47-	=47-	=47-
!LO:N:vis=00	!	!LO:N:vis=00	!	!	!	!LO:DY:a:t=Forte	!	!	!LO:DY:a:t=F.	!	!
00.r	.	00.r	.	2.B-\	ab-	f	2.f\	ab-	f	2.dd\	ab-
.	.	.	.	4B-\	-sti-	.	4f\	-ſti-	.	4dd\	-ſti-
!	!	!	!	!LO:TX:t=P:problem=kreska pseudotaktowa	!	!	!LO:TX:t=P:problem=kreska pseudotaktowa	!	!	!LO:TX:t=P:problem=kreska pseudotaktowa	!
.	.	.	.	2B-\	-nens	.	2g\	-nens	.	2dd\	-nens
!	!	!	!	!LO:LB:g=original	!	!	!	!	!	!	!
=48-	=48-	=48-	=48-	=48-	=48-	=48-	=48-	=48-	=48-	=48-	=48-
.	.	.	.	2.f\	se	.	(2.an\	se	.	1cc	se
.	.	.	.	4g\	.	.	4b-\)	.	.	.	.
!	!	!	!	!	!	!	!	!	!	!LO:TX:t=P:problem=kreska pseudotaktowa	!
.	.	.	.	(4f\	ab	.	(4a\	ab	.	2cc\	ab
!	!	!	!	!LO:TX:t=P:problem=kreska pseudotaktowa	!	!	!LO:TX:t=P:problem=kreska pseudotaktowa	!	!	!	!
.	.	.	.	4e-X\)	.	.	4g\)	.	.	.	.
=49-	=49-	=49-	=49-	=49-	=49-	=49-	=49-	=49-	=49-	=49-	=49-
.	.	.	.	1d	om-	.	1f	om-	.	1b-	om-
!	!	!	!	!	!	!	!	!	!	!LO:TX:t=P:problem=kreska pseudotaktowa	!
.	.	.	.	2e-X\	-ni	.	4g\	-ni	.	[<2b-\	-ni
!	!	!	!	!	!	!	!LO:TX:t=P:problem=kreska pseudotaktowa	!	!	!	!
.	.	.	.	.	.	.	4f\	.	.	.	.
!	!	!	!	!	!	!	!LO:LB:g=original	!	!	!	!
=50-	=50-	=50-	=50-	=50-	=50-	=50-	=50-	=50-	=50-	=50-	=50-
!	!	!	!	!LO:TX:t=P:problem=kreska pseudotaktowa	!	!	!LO:TX:t=P:problem=kreska pseudotaktowa	!	!	!	!
.	.	.	.	1.c	ma-	.	1.e-X	ma-	.	2b-\,<]	.
.	.	.	.	.	.	.	.	.	.	2b-\	ma-
!	!	!	!	!	!	!	!	!	!	!LO:TX:t=P:problem=kreska pseudotaktowa	!
.	.	.	.	.	.	.	.	.	.	2a\	-lo,
=51-	=51-	=51-	=51-	=51-	=51-	=51-	=51-	=51-	=51-	=51-	=51-
!LO:N:vis=00	!	!LO:N:vis=00	!	!	!	!	!	!	!	!	!
00.r	.	00.r	.	2B-,<\	-lo	.	(2d\	-lo	.	2b-\	.
.	.	.	.	(2B-\	et	.	2en,<\)	.	.	(2b-\	et
!	!	!	!	!LO:TX:t=P:problem=kreska pseudotaktowa	!	!	!LO:TX:t=P:problem=kreska pseudotaktowa	!	!	!LO:TX:t=P:problem=kreska pseudotaktowa	!
.	.	.	.	2A/)	.	.	2f#X\	et	.	2cc\)	.
=52-	=52-	=52-	=52-	=52-	=52-	=52-	=52-	=52-	=52-	=52-	=52-
.	.	.	.	2.G/	per-	.	2.g\	per-	.	2.dd\	per-
.	.	.	.	4G/	-ma-	.	4g\	-ma-	.	4dd\	-ma-
!	!	!	!	!LO:TX:t=P:problem=kreska pseudotaktowa	!	!	!LO:TX:t=P:problem=kreska pseudotaktowa	!	!	!LO:TX:t=P:problem=kreska pseudotaktowa	!
.	.	.	.	2F#X,</	-nens	.	2an\	-nens	.	2dd\	-nens
=53-	=53-	=53-	=53-	=53-	=53-	=53-	=53-	=53-	=53-	=53-	=53-
.	.	.	.	2G/	in	.	2g\	in	.	2dd\	in
.	.	.	.	2B-\	In-	.	2g\	In-	.	2dd\	In-
!	!	!	!	!LO:TX:t=P:problem=kreska pseudotaktowa	!	!	!	!	!	!	!
.	.	.	.	2c\	-no-	.	4a\	-no-	.	(4ccn\	-no-
!	!	!	!	!	!	!	!LO:TX:t=P:problem=kreska pseudotaktowa	!	!	!LO:TX:t=P:problem=kreska pseudotaktowa	!
.	.	.	.	.	.	.	4g\	.	.	4b-\)	.
!	!	!	!	!	!	!	!	!	!	!LO:LB:g=original	!
=54-	=54-	=54-	=54-	=54-	=54-	=54-	=54-	=54-	=54-	=54-	=54-
.	.	.	.	2.d\	-cen-	.	2.f#X\	-cen-	.	2.a/	-cen-
.	.	.	.	4d\	-ti-	.	4f#\	-ti-	.	4a/	-ti-
!	!	!	!	!LO:TX:t=P:problem=kreska pseudotaktowa	!	!	!LO:TX:t=P:problem=kreska pseudotaktowa	!	!	!LO:TX:t=P:problem=kreska pseudotaktowa	!
.	.	.	.	2e-X\	-a	.	2g\	-a	.	[<2g/	-a
=55-	=55-	=55-	=55-	=55-	=55-	=55-	=55-	=55-	=55-	=55-	=55-
!LO:TX:t=P:problem=kreska pseudotaktowa	!	!LO:TX:t=P:problem=kreska pseudotaktowa	!	!	!	!	!	!	!	!	!
1.r	.	1.r	.	2c\	su-	.	(2e-X\	su-	.	2g/]	.
.	.	.	.	2d\	.	.	2d\)	.	.	2g/	su-
!	!	!	!	!LO:TX:t=P:problem=kreska pseudotaktowa	!	!	!LO:TX:t=P:problem=kreska pseudotaktowa	!	!	!LO:TX:t=P:problem=kreska pseudotaktowa	!
.	.	.	.	2D,</	-a	.	2d,<\	-a	.	2f#X,</	-a.
!	!	!	!	!LO:LB:g=original	!	!	!	!	!	!	!
=56-	=56-	=56-	=56-	=56-	=56-	=56-	=56-	=56-	=56-	=56-	=56-
2.G\	ab-	2.G\	ab-	2.Bn\	ab-	.	2.d\	ab-	.	2.g/	ab-
4G\	-ſti-	4G\	-ſti-	4B\	-ſti-	.	4d\	-ſti-	.	4a/	-sti-
!LO:TX:t=P:problem=kreska pseudotaktowa	!	!LO:TX:t=P:problem=kreska pseudotaktowa	!	!LO:TX:t=P:problem=kreska pseudotaktowa	!	!	!LO:TX:t=P:problem=kreska pseudotaktowa	!	!	!LO:TX:t=P:problem=kreska pseudotaktowa	!
2G\	-nens	2G\	-nens	2B\	-nens	.	2d\	-nens	.	2bn\	-nens
!	!	!	!	!	!	!	!LO:LB:g=original	!	!	!	!
=57-	=57-	=57-	=57-	=57-	=57-	=57-	=57-	=57-	=57-	=57-	=57-
(2.c\	se	(2.c\	se	1G	se	.	(2.en\	se	.	1cc	se
4d\)	.	4d\)	.	.	.	.	4fny\)	.	.	.	.
!	!	!	!	!	!	!	!	!	!	!LO:TX:t=P:problem=kreska pseudotaktowa	!
(4c\	ab	(4c\	ab	2G/	ab-	.	(4e\	ab	.	2cc\	ab
!LO:TX:t=P:problem=kreska pseudotaktowa	!	!LO:TX:t=P:problem=kreska pseudotaktowa	!	!	!	!	!LO:TX:t=P:problem=kreska pseudotaktowa	!	!	!	!
4B-X\)	.	4B-X\)	.	.	.	.	4d\)	.	.	.	.
!	!	!LO:LB:g=original	!	!	!	!	!	!	!	!	!
=58-	=58-	=58-	=58-	=58-	=58-	=58-	=58-	=58-	=58-	=58-	=58-
1A	om-	1A	om-	1A	-om-	.	1c	om-	.	1cc	om-
!	!	!LO:TX:t=P:problem=kreska pseudotaktowa	!	!LO:TX:t=P:problem=kreska pseudotaktowa	!	!	!LO:TX:t=P:problem=kreska pseudotaktowa	!	!	!	!
2B-X\	-ni	2B-X\	-ni	[<2d\	-ni	.	[<2f\\	-ni	.	2b-X\	-ni
=59-	=59-	=59-	=59-	=59-	=59-	=59-	=59-	=59-	=59-	=59-	=59-
!	!	!LO:TX:t=P:problem=kreska pseudotaktowa	!	!	!	!	!	!	!	!	!
1.G	ma-	1.G	ma-	2d\]	.	.	2f\,<]	.	.	1.b-T	ma-
.	.	.	.	1B-X	ma-	.	(2f\	ma-	.	.	.
!	!	!	!	!	!	!	!LO:TX:t=P:problem=kreska pseudotaktowa	!	!	!	!
.	.	.	.	.	.	.	2e\)	.	.	.	.
=60-	=60-	=60-	=60-	=60-	=60-	=60-	=60-	=60-	=60-	=60-	=60-
2F,<\	-lo	2F,<\	-lo;	2c,<\	-lo	.	2f,<\	-lo	.	2a,<\	-lo
!	!	!	!	!LO:TX:t=P:problem=kreska pseudotaktowa	!	!	!LO:TX:t=P:problem=kreska pseudotaktowa	!	!	!LO:TX:t=P:problem=kreska pseudotaktowa	!
(2F\	et	(2F\	et	1A	et	.	1f	et	.	1cc	et
!LO:TX:t=P:problem=kreska pseudotaktowa	!	!LO:TX:t=P:problem=kreska pseudotaktowa	!	!	!	!	!	!	!	!	!
2E-X\)	.	2E-X\)	.	.	.	.	.	.	.	.	.
!LO:LB:g=original	!	!	!	!	!	!	!	!	!	!	!
=61-	=61-	=61-	=61-	=61-	=61-	=61-	=61-	=61-	=61-	=61-	=61-
2.D/	per-	2.D/	per-	2.B-\	per-	.	2.f\	per-	.	2.dd\	per-
!	!	!	!	!	!	!	!LO:TX:a:t=P:problem=♭ above	!	!	!	!
4C/	-ma-	4C/	-ma-	4c\	-ma-	.	4e-X\	-ma-	.	4dd\	-ma-
!LO:TX:t=P:problem=kreska pseudotaktowa	!	!LO:TX:t=P:problem=kreska pseudotaktowa	!	!LO:TX:t=P:problem=kreska pseudotaktowa	!	!	!LO:TX:t=P:problem=kreska pseudotaktowa	!	!	!LO:TX:t=P:problem=kreska pseudotaktowa	!
2BB-/	-nens	2BB-/	-nens	2d,<\	-nens	.	2d\	-nens	.	2dd\	-nens
=62-	=62-	=62-	=62-	=62-	=62-	=62-	=62-	=62-	=62-	=62-	=62-
2BB-/	in	2BB-/	in	2B-\	in	.	2f\	in	.	2dd\	in
2C/	in-	2C/	In-	2B-\	in-	.	2e-X\	In-	.	2ccn\	in-
!LO:TX:t=P:problem=kreska pseudotaktowa	!	!LO:TX:t=P:problem=kreska pseudotaktowa	!	!LO:TX:t=P:problem=kreska pseudotaktowa	!	!	!LO:TX:t=P:problem=kreska pseudotaktowa	!	!	!	!
2D\	-no-	2D/	-no-	2B-\	-no-	.	2f\	-no-	.	4b-\	-no-
*	*	*	*	*	*	*	*	*	*	*custos:g	*
!	!	!	!	!	!	!	!	!	!	!LO:TX:t=P:problem=kreska pseudotaktowa	!
.	.	.	.	.	.	.	.	.	.	4a-X\	.
!	!	!	!	!	!	!	!	!	!	!LO:LB:g=original	!
=63-	=63-	=63-	=63-	=63-	=63-	=63-	=63-	=63-	=63-	=63-	=63-
2.E-X\	-cen-	2.E-X\	-cen-	2.B-\	-cen-	.	2.e-X\	-cen-	.	2.g/	-cen-
4E-\	-ti-	4E-\	-ti-	4B-\	-ti-	.	4e-\	-ti-	.	4any\	-ti-
!	!	!LO:TX:t=P:problem=kreska pseudotaktowa	!	!	!	!	!LO:TX:t=P:problem=kreska pseudotaktowa	!	!	!	!
2BB-/	-a	2BB-/	-a	(4B-\	-a	.	2f\	-a	.	2b-\	-a
!	!	!	!	!LO:TX:t=P:problem=kreska pseudotaktowa	!	!	!	!	!	!	!
.	.	.	.	4A\)	.	.	.	.	.	.	.
=64-	=64-	=64-	=64-	=64-	=64-	=64-	=64-	=64-	=64-	=64-	=64-
2C/	.	2C/	su-	1G	su-	.	2e-X\	su-	.	1.an	su-
*custos:GG	*	*custos:GG	*	*	*	*	*	*	*	*	*
1D	Su-	1D	.	.	.	.	1d	.	.	.	.
*	*	*	*	*custos:G	*	*	*	*	*	*	*
!	!	!LO:TX:b:i:t=Vertat	!	!	!	!	!	!	!	!	!
.	.	.	.	2F#X/	.	.	.	.	.	.	.
!	!	!LO:PB:g=original	!	!LO:PB:g=original	!	!	!	!	!	!	!
=65-	=65-	=65-	=65-	=65-	=65-	=65-	=65-	=65-	=65-	=65-	=65-
*M2/1	*	*M2/1	*	*M2/1	*	*	*M2/1	*	*	*M2/1	*
*met(C|)	*	*met(C|)	*	*met(C|)	*	*	*met(C|)	*	*	*met(C|)	*
2GG,</	-a.	2GG,</	-a.	2G,</	-â.	.	2d\	-a.	.	2bn,<\	-a.
!	!	!	!	!	!	!	!LO:TX:t=P:problem=kreska pseudotaktowa	!	!	!LO:TX:t=P:problem=kreska pseudotaktowa	!
1B-\	I-	1B-\	I-	1d\	I-	.	2r	.	.	2r	.
!	!	!	!	!	!	!	!LO:TX:t=P:problem=kreska pseudotaktowa	!	!	!LO:TX:t=P:problem=kreska pseudotaktowa	!
.	.	.	.	.	.	.	0r	.	.	0r	.
!LO:TX:t=P:problem=kreska pseudotaktowa	!	!LO:TX:t=P:problem=kreska pseudotaktowa	!	!LO:TX:t=P:problem=kreska pseudotaktowa	!	!	!	!	!	!	!
2B-\	-pse	2B-\	-pse	2d\	-pse	.	.	.	.	.	.
=66-	=66-	=66-	=66-	=66-	=66-	=66-	=66-	=66-	=66-	=66-	=66-
2.An\	in-	2.An\	in-	2.c\	in-	.	.	.	.	.	.
!	!	!LO:TX:t=P:problem=kreska pseudotaktowa	!	!LO:TX:t=P:problem=kreska pseudotaktowa	!	!	!	!	!	!LO:TX:b:i:t=Vertat Cito	!
4G\	-ter-	4G\	-ter-	4B-\	-ter-	.	.	.	.	.	.
*	*	*	*	*	*	*	*	*	*	*custos:dd	*
!	!	!	!	!	!	!	!LO:PB:g=original	!	!	!	!
(4F\	-ce-	4F\	-ce-	4A/	-ce-	.	2r	.	.	2r	.
4Eny\	.	4E-X\	.	(4G/	.	.	.	.	.	.	.
4D\)	.	4D\	.	4Fny/)	.	.	1f\	I-	.	1dd\	I-
!LO:TX:t=P:problem=kreska pseudotaktowa	!	!LO:TX:t=P:problem=kreska pseudotaktowa	!	!	!	!	!	!	!	!	!
4C\	.	4C\	.	4E/	.	.	.	.	.	.	.
=67-	=67-	=67-	=67-	=67-	=67-	=67-	=67-	=67-	=67-	=67-	=67-
1BB-	.	1BB-	.	1D	.	.	.	.	.	.	.
!	!	!	!	!	!	!	!LO:TX:t=P:problem=kreska pseudotaktowa	!	!	!LO:TX:t=P:problem=kreska pseudotaktowa	!
.	.	.	.	.	.	.	2f\	-pse	.	2dd\	-pse
!	!	!	!	!LO:TX:t=P:problem=kreska pseudotaktowa	!	!	!	!	!	!	!
0C	.	0C	.	1G,<	-dat	.	2.e-X\	in-	.	2.ccn\	in-
!	!	!	!	!	!	!	!LO:TX:t=P:problem=kreska pseudotaktowa	!	!	!LO:TX:t=P:problem=kreska pseudotaktowa	!
.	.	.	.	.	.	.	4d\	-ter-	.	4b-y\	-ter-
=68-	=68-	=68-	=68-	=68-	=68-	=68-	=68-	=68-	=68-	=68-	=68-
.	.	.	.	2.c\	in-	.	4c/	-ce-	.	4a\	-ce-
.	.	.	.	.	.	.	4B-/	.	.	4g\	.
.	.	.	.	.	.	.	4A/	.	.	1cc\	.
!	!	!	!	!	!	!	!LO:TX:t=P:problem=kreska pseudotaktowa	!	!	!	!
.	.	.	.	4B-\	-ter-	.	4G/	.	.	.	.
0D	.	0D	.	(2A\	-ce-	.	2f#X\	.	.	.	.
.	.	.	.	4B-\	.	.	1g\	.	.	2b-X\	.
.	.	.	.	4c\)	.	.	.	.	.	.	.
=69-	=69-	=69-	=69-	=69-	=69-	=69-	=69-	=69-	=69-	=69-	=69-
!	!	!	!	!	!	!	!	!	!	!LO:TX:t=P:problem=kreska pseudotaktowa	!
.	.	.	.	2d\	.	.	.	.	.	1an	.
!	!	!	!	!LO:TX:t=P:problem=kreska pseudotaktowa	!	!	!LO:TX:t=P:problem=kreska pseudotaktowa	!	!	!	!
.	.	.	.	2d,<\	-dat	.	2f#X\	.	.	.	.
!	!	!	!	!	!	!	!LO:TX:t=P:problem=kreska pseudotaktowa	!	!	!	!
2GG,</	-dat	2GG,</	-dat	2.d\	pro	.	1g,<	-dat	.	2b-,<\	-dat
1G\	pro	1G\	pro	.	.	.	.	.	.	1b-\	pro
.	.	.	.	4c\	pec-	.	.	.	.	.	.
=70-	=70-	=70-	=70-	=70-	=70-	=70-	=70-	=70-	=70-	=70-	=70-
.	.	.	.	2B-\	-ca-	.	2g\	pro	.	.	.
!LO:TX:t=P:problem=kreska pseudotaktowa	!	!LO:TX:t=P:problem=kreska pseudotaktowa	!	!LO:TX:t=P:problem=kreska pseudotaktowa	!	!	!	!	!	!LO:TX:t=P:problem=kreska pseudotaktowa	!
2F\	pec-	2F\	pec-	2A\	-tis	.	2a\	pec-	.	2dd\	pec-
!	!	!	!	!LO:LB:g=original	!	!	!	!	!	!	!
1E-X	-ca-	1E-X	-ca-	2B-\	om-	.	1g	-ca-	.	(2dd\	-ca-
!	!	!	!	!	!	!	!	!	!	!LO:TX:t=P:problem=kreska pseudotaktowa	!
.	.	.	.	2G/	-ni-	.	.	.	.	2cc\)	.
=71-	=71-	=71-	=71-	=71-	=71-	=71-	=71-	=71-	=71-	=71-	=71-
!LO:TX:t=P:problem=kreska pseudotaktowa	!	!LO:TX:t=P:problem=kreska pseudotaktowa	!	!	!	!	!LO:TX:t=P:problem=kreska pseudotaktowa	!	!	!	!
1D,<	-tis	1D,<	-tis	1A,<	-um	.	1f#X	-tis	.	2dd,<\	-tis
.	.	.	.	.	.	.	.	.	.	2.dd\	om-
!	!	!LO:LB:g=original	!	!	!	!	!	!	!	!	!
2.G\	om-	2.G\	om-	2.Bn\	om-	.	2.g\	om-	.	.	.
.	.	.	.	.	.	.	.	.	.	4dd\	-ni-
!	!	!	!	!	!	!	!	!	!	!LO:TX:t=P:problem=kreska pseudotaktowa	!
.	.	.	.	.	.	.	.	.	.	2dd\	-um
4G\	-ni-	4G\	-ni-	4B\	-ni-	.	4g\	-ni-	.	.	.
=72-	=72-	=72-	=72-	=72-	=72-	=72-	=72-	=72-	=72-	=72-	=72-
2G,<\	-um	2G,<\	-um	2B,<\	-um	.	2g,<\	-u(m)	.	2g/	po-
!LO:TX:t=P:problem=kreska pseudotaktowa	!	!LO:TX:t=P:problem=kreska pseudotaktowa	!	!	!	!	!LO:TX:t=P:problem=kreska pseudotaktowa	!	!	!	!
2C/	po-	2C/	po-	1c\	Po-	.	2en\	po-	.	2g/	-pu-
!	!	!	!	!	!	!	!LO:LB:g=original	!	!	!	!
2F\	-pu-	2F\	.	.	.	.	2.fny\	.	.	(2a\	-lo-
!	!	!	!	!LO:TX:t=P:problem=kreska pseudotaktowa	!	!	!	!	!	!LO:TX:t=P:problem=kreska pseudotaktowa	!
2D/	-lo-	2D\	-pu-	2F/	-pu-	.	.	.	.	2b-\)	.
.	.	.	.	.	.	.	4f\	-pu-	.	.	.
!	!	!	!	!	!	!	!	!	!	!LO:LB:g=original	!
=73-	=73-	=73-	=73-	=73-	=73-	=73-	=73-	=73-	=73-	=73-	=73-
1C	.	1C	-lo-	(<2G/	-lo-	.	1e-X	-lo-	.	1cc	-rum
!	!	!	!	!LO:TX:t=P:problem=kreska pseudotaktowa	!	!	!	!	!	!	!
.	.	.	.	2A/)	.	.	.	.	.	.	.
!	!	!	!	!	!	!	!LO:TX:t=P:problem=kreska pseudotaktowa	!	!	!LO:TX:t=P:problem=kreska pseudotaktowa	!
2BB-,</	-rum	2BB-,</	-rum	2B-y,<\	-rum	.	1d,<	-rum	.	1fny,<	.
1B-\	o(m-	1B-\	om-	1d\	Om-	.	.	.	.	.	.
=74-	=74-	=74-	=74-	=74-	=74-	=74-	=74-	=74-	=74-	=74-	=74-
!	!	!	!	!	!	!	!LO:TX:t=P:problem=kreska pseudotaktowa	!	!	!LO:TX:t=P:problem=kreska pseudotaktowa	!
.	.	.	.	.	.	.	0r	.	.	0r	.
4B-\	-n)i-	4B-\	-ni-	4d\	-ni-	.	.	.	.	.	.
!LO:TX:t=P:problem=kreska pseudotaktowa	!	!LO:TX:t=P:problem=kreska pseudotaktowa	!	!LO:TX:t=P:problem=kreska pseudotaktowa	!	!	!	!	!	!	!
4B-\	-u(m)	4B-\	-u(m)	4d\	-u(m)	.	.	.	.	.	.
!LO:LB:g=original	!	!	!	!	!	!	!	!	!	!	!
2An\	po-	2An\	po-	2c\	Po-	.	.	.	.	.	.
!	!	!LO:TX:t=P:problem=kreska pseudotaktowa	!	!	!	!	!	!	!	!	!
2G\	-pu-	2G\	-pu-	2B-\	-pu-	.	.	.	.	.	.
=75-	=75-	=75-	=75-	=75-	=75-	=75-	=75-	=75-	=75-	=75-	=75-
2F\	-lo-	2F\	-lo-	2A/	-lo-	.	1.a	om-	.	1.ff	Om-
(4D\	.	4D\	.	4F/	.	.	.	.	.	.	.
!LO:TX:t=P:problem=kreska pseudotaktowa	!	!LO:TX:t=P:problem=kreska pseudotaktowa	!	!	!	!	!	!	!	!	!
4Eny\)	.	4Eny\	.	4G/	.	.	.	.	.	.	.
4F\	.	4F\	.	4A\	.	.	.	.	.	.	.
4G\	.	4G\	.	4B-\	.	.	.	.	.	.	.
4A\	.	4A\	.	4c\	.	.	4a\	-ni-	.	4ff\	-ni-
*	*	*	*	*custos:B	*	*	*	*	*	*	*
!	!	!LO:TX:t=P:problem=kreska pseudotaktowa	!	!	!	!	!	!	!	!	!
!	!	!	!	!LO:TX:t=P:problem=kreska pseudotaktowa	!	!	!LO:TX:t=P:problem=kreska pseudotaktowa	!	!	!LO:TX:t=P:problem=kreska pseudotaktowa	!
4F\	.	4F\	.	4A\	.	.	4a\	-u(m)	.	4ff\	-um
!	!	!LO:LB:g=original	!	!LO:LB:g=original	!	!	!	!	!	!	!
=76-	=76-	=76-	=76-	=76-	=76-	=76-	=76-	=76-	=76-	=76-	=76-
*lig	*	*lig	*	*	*	*	*	*	*	*	*
1G	.	1G	.	(2B-\	.	.	2g\	po-	.	4een\	Po-
.	.	.	.	.	.	.	.	.	.	4cc\	-pu-
.	.	.	.	2d\)	.	.	2f\	-pu-	.	1dd\	-lo-
!	!	!	!	!LO:TX:t=P:problem=kreska pseudotaktowa	!	!	!	!	!	!	!
1A	.	1A	.	1A,<	-rum:	.	1en	-lo-	.	.	.
.	.	.	.	.	.	.	.	.	.	2cc#X\	.
*Xlig	*	*Xlig	*	*	*	*	*	*	*	*	*
=77-	=77-	=77-	=77-	=77-	=77-	=77-	=77-	=77-	=77-	=77-	=77-
!	!	!	!	!	!	!	!LO:TX:t=P:problem=kreska pseudotaktowa	!	!	!LO:TX:t=P:problem=kreska pseudotaktowa	!
2D,</	-rum	2D,</	-rum	2r	.	.	1f,<	-rum	.	0dd,<	-rum
1D\	Om-	1D\	Om-	1f\	Om-	.	.	.	.	.	.
.	.	.	.	.	.	.	2r	.	.	.	.
!	!	!	!	!	!	!	!LO:TX:t=P:problem=kreska pseudotaktowa	!	!	!	!
4D/	-ni-	4D/	-ni-	4f\	-ni-	.	(2d\	Om-	.	.	.
!LO:TX:t=P:problem=kreska pseudotaktowa	!	!LO:TX:t=P:problem=kreska pseudotaktowa	!	!LO:TX:t=P:problem=kreska pseudotaktowa	!	!	!	!	!	!	!
4D/	-u(m)	4D/	-u(m)	4f\	-um	.	.	.	.	.	.
=78-	=78-	=78-	=78-	=78-	=78-	=78-	=78-	=78-	=78-	=78-	=78-
2.C/	po-	2.C/	po-	2.en\	po-	.	2g\)	.	.	2r	.
.	.	.	.	.	.	.	4g\	-ni-	.	1ccny\	om-
!	!	!	!	!	!	!	!LO:TX:t=P:problem=kreska pseudotaktowa	!	!	!	!
4BB-/	-pu-	4BB-/	-pu-	4d\	-pu-	.	4g\	-u(m)	.	.	.
(4AA/	-lo-	4AA/	-lo-	4c\	-lo-	.	2f\	po-	.	.	.
4BB-/	.	4BB-/	.	4d\	.	.	.	.	.	.	.
*	*	*	*	*	*	*	*custos:d	*	*	*	*
!	!	!	!	!	!	!	!LO:TX:t=P:problem=kreska pseudotaktowa	!	!	!	!
4C/)	.	4C/	.	4e\	.	.	2en\	-pu-	.	4cc\	-ni-
!LO:TX:t=P:problem=kreska pseudotaktowa	!	!LO:TX:t=P:problem=kreska pseudotaktowa	!	!LO:TX:t=P:problem=kreska pseudotaktowa	!	!	!	!	!	!LO:TX:t=P:problem=kreska pseudotaktowa	!
4AA/	.	4AA/	.	4c\	.	.	.	.	.	4cc\	-um
!	!	!	!	!	!	!	!LO:LB:g=original	!	!	!	!
=79-	=79-	=79-	=79-	=79-	=79-	=79-	=79-	=79-	=79-	=79-	=79-
1BB-	.	1BB-	.	1d	.	.	4d\	-lo-	.	2b-X\	po-
.	.	.	.	.	.	.	4e\	.	.	.	.
.	.	.	.	.	.	.	4f\	.	.	2a\	-pu-
!	!	!	!	!	!	!	!LO:TX:t=P:problem=kreska pseudotaktowa	!	!	!	!
.	.	.	.	.	.	.	4d\	.	.	.	.
1C	.	1C	.	1.c	.	.	4e\	.	.	1g	-lo-
.	.	.	.	.	.	.	4f\	.	.	.	.
.	.	.	.	.	.	.	4g\	.	.	.	.
!	!	!	!	!	!	!	!LO:TX:t=P:problem=kreska pseudotaktowa	!	!	!	!
.	.	.	.	.	.	.	4e\	.	.	.	.
=80-	=80-	=80-	=80-	=80-	=80-	=80-	=80-	=80-	=80-	=80-	=80-
0D	.	0D	.	.	.	.	2f#X\	.	.	2d,</	-rum
!	!	!	!	!LO:TX:t=P:problem=kreska pseudotaktowa	!	!	!	!	!	!	!
.	.	.	.	2B-\	.	.	1g\	.	.	1dd\	om-
.	.	.	.	2A,<\	-rum	.	.	.	.	.	.
!	!	!	!	!	!	!	!LO:TX:t=P:problem=kreska pseudotaktowa	!	!	!	!
.	.	.	.	1d\	Om-	.	2f#X\	.	.	4dd\	-ni-
!	!	!	!	!	!	!	!	!	!	!LO:TX:t=P:problem=kreska pseudotaktowa	!
.	.	.	.	.	.	.	.	.	.	4dd\	-u(m)
!	!	!	!	!	!	!	!	!	!	!LO:LB:g=original	!
=81-	=81-	=81-	=81-	=81-	=81-	=81-	=81-	=81-	=81-	=81-	=81-
!	!	!	!	!	!	!	!LO:TX:t=P:problem=kreska pseudotaktowa	!	!	!	!
2GG,</	-rum	2GG,</	-rum	.	.	.	1g,<	-rum	.	4cc\	po-
.	.	.	.	.	.	.	.	.	.	4cc\	-pu-
1G\	om-	1G\	om-	4d\	-ni-	.	.	.	.	2b-\	-lo-
*	*	*	*	*custos:B-	*	*	*	*	*	*	*
!	!	!	!	!LO:TX:t=P:problem=kreska pseudotaktowa	!	!	!	!	!	!	!
.	.	.	.	4d\	-um	.	.	.	.	.	.
!	!	!	!	!LO:LB:g=original	!	!	!	!	!	!LO:TX:t=P:problem=kreska pseudotaktowa	!
.	.	.	.	(<2.B-\	Po-	.	2r	.	.	1g,<	-rum
4G\	-ni-	4G\	-ni-	.	.	.	1g\	om-	.	.	.
!	!	!LO:SIC:v:t=custos w formie bemola E-	!	!	!	!	!	!	!	!	!
!LO:TX:t=P:problem=kreska pseudotaktowa	!	!LO:TX:t=P:problem=kreska pseudotaktowa	!	!	!	!	!	!	!	!	!
4F\	-u(m)	4F\	-um	4A/)	.	.	.	.	.	.	.
!	!	!LO:LB:g=original	!	!	!	!	!	!	!	!	!
=82-	=82-	=82-	=82-	=82-	=82-	=82-	=82-	=82-	=82-	=82-	=82-
2E-X\	Po-	2E-X\	Po-	2G/	-pu-	.	.	.	.	2r	.
!	!	!	!	!LO:TX:t=P:problem=kreska pseudotaktowa	!	!	!	!	!	!	!
(4E-\	-pu-	4E-\	-pu-	[<2G/	-lo-	.	4g\	-ni-	.	1cc\	Om-
!	!	!LO:TX:t=P:problem=kreska pseudotaktowa	!	!	!	!	!LO:TX:t=P:problem=kreska pseudotaktowa	!	!	!	!
4D\)	.	4D\	.	.	.	.	4g\	-um	.	.	.
!	!	!	!	!LO:N:xstem:cue	!	!	!	!	!	!	!
(>1C	-lo-	(>1C	-lo-	4G/]	.	.	2fn\	po-	.	.	.
.	.	.	.	4F/	.	.	.	.	.	.	.
!	!	!	!	!	!	!	!LO:TX:t=P:problem=kreska pseudotaktowa	!	!	!	!
.	.	.	.	4E-X/	.	.	[<2e-X\	.	.	4cc\	-ni-
!	!	!	!	!	!	!	!	!	!	!LO:TX:t=P:problem=kreska pseudotaktowa	!
.	.	.	.	8D/L	.	.	.	.	.	4cc\	-um
.	.	.	.	8C/J	.	.	.	.	.	.	.
=83-	=83-	=83-	=83-	=83-	=83-	=83-	=83-	=83-	=83-	=83-	=83-
!	!	!	!	!LO:TX:t=P:problem=kreska pseudotaktowa	!	!	!	!	!	!	!
1BBn)	.	1BBn)	.	1D,<	-rum	.	2e-]	.	.	2g/	Po-
!	!	!	!	!	!	!	!	!	!	!LO:TX:t=P:problem=kreska pseudotaktowa	!
.	.	.	.	.	.	.	2d\	-pu-	.	2g/	-pu-
*	*	*	*	*	*	*	*custos:Bn	*	*	*	*
!	!	!	!	!	!	!	!LO:TX:t=P:problem=kreska pseudotaktowa	!	!	!	!
1C	.	1C	.	2.G/	Om-	.	1c	-lo-	.	1e-X	-lo-
.	.	.	.	4G/	-ni-	.	.	.	.	.	.
!	!	!	!	!	!	!	!LO:LB:g=original	!	!	!	!
=84-	=84-	=84-	=84-	=84-	=84-	=84-	=84-	=84-	=84-	=84-	=84-
!LO:TX:t=P:problem=kreska pseudotaktowa	!	!LO:TX:t=P:problem=kreska pseudotaktowa	!	!LO:TX:t=P:problem=kreska pseudotaktowa	!	!	!	!	!	!	!
1GG,<	-rum.	1GG,<	-rum.	1G	-u(m)	.	2Bn,</	-rum	.	2d,</	-rum
!	!	!	!	!	!	!	!	!	!	!LO:TX:t=P:problem=kreska pseudotaktowa	!
.	.	.	.	.	.	.	2B/	po-	.	2dd\	Po-
2C/	po-	2C/	po-	2G/	Po-	.	2.c\	.	.	2.ee-X\	.
2C/	-pu-	2C/	-pu-	2G/	-pu-	.	.	.	.	.	.
.	.	.	.	.	.	.	4d\	-pu-	.	4dd\	-pu-
=85-	=85-	=85-	=85-	=85-	=85-	=85-	=85-	=85-	=85-	=85-	=85-
!LO:TX:t=P:problem=kreska pseudotaktowa	!	!	!	!	!	!	!	!	!	!	!
!LO:N:vis=1.	!	!	!	!	!	!	!	!	!	!	!
1C	-lo-	1C	-lo-	1G	-lo-	.	1e-X	-lo-	.	1cc	-lo-
!	!	!LO:TX:b:i:t=O ad M D. Gm	!	!LO:TX:b:i:t=O. ad M. D. Gm.	!	!	!LO:TX:b:i:t=O. ad M. D. Gm.	!	!	!LO:TX:b:i:t=O. ad M. D. Gm.	!
1GGl;	-rum	1GGl;	-rum.	1Gl;	-rum.	.	1dl;	-rum	.	1bnl;	-rum.
==	==	==	==	==	==	==	==	==	==	==	==
*-	*-	*-	*-	*-	*-	*-	*-	*-	*-	*-	*-
!!!system-decoration: [s1,s2,s3,s4]s5
!!!RDF**kern: > = above
!!!RDF**kern: < = below
!!!RDF**kern: l = terminal long
!!!RDF**kern: | = vertical stroke
!!!ENC: Marta Lawrence
!!!END: 2021-04-07
!!!ENC: Mateusz Solarz
!!!END: 2021-03-12
